public/logo-mini.svg

<svg
width="171"
height="214"
viewBox="0 0 171 214"
fill="none"
xmlns="http://www.w3.org/2000/svg"
>
    <path
        opacity="0.3"
        d="M34.9199 31.1399L68.7599 31.1399L102.24 31.1399L136.08 31.1399L136.08 47.9999L171 47.9999L171 -6.10352e-05L-0.000117874 -7.59845e-05L-0.00012207 47.9999L34.9199 47.9999L34.9199 31.1399Z"
        fill="black"
    />
    <path
        d="M136.08 157.86H102.24V63.0001H68.76V157.86H34.92V63.0001H0V189H171V63.0001H136.08V157.86Z"
        fill="#0094E8"
    />
</svg>

<svg
    width="170"
    height="185"
    viewBox="0 0 170 185"
    fill="none"
    xmlns="http://www.w3.org/2000/svg"
>
    <path
    opacity=".3"
    d="M34.92 31.14h101.16V48H171V0H0v48h34.92V31.14Z"
    fill="#000"
    />
    <path
    d="M136.08 157.86h-33.84V63H68.76v94.86H34.92V63H0v126h171V63h-34.92v94.86Z"
    fill="#0094E8"
    />
</svg>
